src/standard/stock-market-up.svg

<?xml version="1.0" encoding="UTF-8"?><svg id="uuid-e40ecdd0-11a6-4f34-8a8e-b79545f04b9a" xmlns="http://www.w3.org/2000/svg" width="36" height="36" viewBox="0 0 36 36"><metadata><?xpacket begin="﻿" id="W5M0MpCehiHzreSzNTczkc9d"?>
<x:xmpmeta xmlns:x="adobe:ns:meta/" x:xmptk="Adobe XMP Core 8.0-c001 1.000000, 0000/00/00-00:00:00        ">
   <rdf:RDF xmlns:rdf="http://www.w3.org/1999/02/22-rdf-syntax-ns#">
      <rdf:Description rdf:about=""
            xmlns:xmp="http://ns.adobe.com/xap/1.0/"
            xmlns:dc="http://purl.org/dc/elements/1.1/"
            xmlns:cq="http://www.day.com/jcr/cq/1.0"
            xmlns:tiff="http://ns.adobe.com/tiff/1.0/">
         <xmp:rhcc-effective-on>2023-12-08T17:45:11.195Z</xmp:rhcc-effective-on>
         <xmp:rhcc-metadata-complete-moderator>pending</xmp:rhcc-metadata-complete-moderator>
         <xmp:rhcc-translation-id>TRAd4529c91-c3dd-4116-9da3-64e5b325a163</xmp:rhcc-translation-id>
         <xmp:CreateDate>2023-12-08T17:45:11.195Z</xmp:CreateDate>
         <xmp:rhcc-effective-on-set-on-upload>true</xmp:rhcc-effective-on-set-on-upload>
         <xmp:rhcc-metadata-complete-uploader>pending</xmp:rhcc-metadata-complete-uploader>
         <xmp:rhcc-file-last-modified>2023-12-08T17:45:39.495Z</xmp:rhcc-file-last-modified>
         <xmp:rhcc-audience>rhcc-audience:internal</xmp:rhcc-audience>
         <xmp:rhcc-rights-restricted>no</xmp:rhcc-rights-restricted>
         <xmp:rhcc-derivative-id>DERd4529c91-c3dd-4116-9da3-64e5b325a163</xmp:rhcc-derivative-id>
         <xmp:rhcc-notify-portal-subscribers-on-change>yes</xmp:rhcc-notify-portal-subscribers-on-change>
         <dc:format>image/svg+xml</dc:format>
         <dc:modified>2024-02-09T20:37:23.445Z</dc:modified>
         <cq:lastReplicationAction_scene7>Activate</cq:lastReplicationAction_scene7>
         <cq:lastReplicationAction_publish>Activate</cq:lastReplicationAction_publish>
         <cq:lastReplicated_publish>2024-02-09T22:24:52.801Z</cq:lastReplicated_publish>
         <cq:lastReplicatedBy>workflow-process-service</cq:lastReplicatedBy>
         <cq:lastReplicationAction>Activate</cq:lastReplicationAction>
         <cq:lastReplicatedBy_publish>workflow-process-service</cq:lastReplicatedBy_publish>
         <cq:isDelivered>true</cq:isDelivered>
         <cq:lastReplicated>2024-02-09T22:24:52.801Z</cq:lastReplicated>
         <cq:lastReplicatedBy_scene7>workflow-process-service</cq:lastReplicatedBy_scene7>
         <cq:lastReplicated_scene7>2024-02-09T22:24:52.801Z</cq:lastReplicated_scene7>
         <tiff:ImageLength>36</tiff:ImageLength>
         <tiff:ImageWidth>36</tiff:ImageWidth>
      </rdf:Description>
   </rdf:RDF>
</x:xmpmeta>
                                                                                                    
                                                                                                    
                                                                                                    
                                                                                                    
                                                                                                    
                                                                                                    
                                                                                                    
                                                                                                    
                                                                                                    
                                                                                                    
                                 
<?xpacket end="w"?></metadata>
<path d="m31,28.375h-2.375v-13.375c0-.34473-.27979-.625-.625-.625s-.625.28027-.625.625v13.375h-3.75v-10.375c0-.34473-.27979-.625-.625-.625s-.625.28027-.625.625v10.375h-3.75v-9.375c0-.34473-.27979-.625-.625-.625s-.625.28027-.625.625v9.375h-3.75v-5.375c0-.34473-.27979-.625-.625-.625s-.625.28027-.625.625v5.375h-3.75v-9.375c0-.34473-.27979-.625-.625-.625s-.625.28027-.625.625v9.375h-2.375c-.34521,0-.625.28027-.625.625s.27979.625.625.625h26c.34521,0,.625-.28027.625-.625s-.27979-.625-.625-.625Z" stroke-width="0"/><path d="m31.5766,6.76062c-.02643-.06348-.06744-.11816-.11218-.16907-.00922-.0105-.01251-.02393-.02252-.03394-.01624-.01624-.03748-.02246-.05499-.03656-.04584-.03705-.09161-.07452-.14685-.09753-.07758-.03229-.15985-.04889-.24255-.04852h-2.9975c-.34521,0-.625.28027-.625.625s.27979.625.625.625h1.49078l-5.49078,5.49121-2.55811-2.55859c-.24414-.24414-.63965-.24414-.88379,0l-6.55811,6.55859-4.55811-4.55859c-.24414-.24414-.63965-.24414-.88379,0l-4,4c-.24414.24414-.24414.64062,0,.88477s.63965.24414.88379,0l3.55811-3.55859,4.55811,4.55859c.12207.12207.28174.18262.44189.18262s.31982-.06055.44189-.18262l6.55811-6.55859,2.55811,2.55859c.24414.24414.63965.24414.88379,0l5.93311-5.93311v1.49072c0,.34473.27979.625.625.625s.625-.28027.625-.625v-3c0-.0816-.01672-.16284-.0484-.23938Z" stroke-width="0"/></svg>

<svg xmlns="http://www.w3.org/2000/svg" viewBox="0 0 36 36">
  <path d="M31 28.375h-2.375V15a.625.625 0 0 0-1.25 0v13.375h-3.75V18a.625.625 0 0 0-1.25 0v10.375h-3.75V19a.625.625 0 0 0-1.25 0v9.375h-3.75V23a.625.625 0 0 0-1.25 0v5.375h-3.75V19a.625.625 0 0 0-1.25 0v9.375H5a.625.625 0 0 0 0 1.25h26a.625.625 0 0 0 0-1.25Z"/>
  <path d="M31.577 6.76a.622.622 0 0 0-.113-.168c-.009-.01-.012-.024-.022-.034-.016-.017-.038-.023-.055-.037a.624.624 0 0 0-.147-.097.624.624 0 0 0-.242-.049H28a.625.625 0 0 0 0 1.25h1.49L24 13.116l-2.558-2.558a.625.625 0 0 0-.884 0L14 17.116l-4.558-4.558a.625.625 0 0 0-.884 0l-4 4a.626.626 0 0 0 .884.884L9 13.884l4.558 4.558a.622.622 0 0 0 .884 0L21 11.884l2.558 2.558c.244.245.64.245.884 0l5.933-5.933V10a.625.625 0 0 0 1.25 0V7a.626.626 0 0 0-.048-.24Z"/>
</svg>
